X:1
T:Philadelphia, 66.64
T:Philadelphia, 66.64
T:Ernest Orlando Sellers, 1903
T:Public Domain Courtesy of the Cyber Hymnal™
C:Ernest Orlando Sellers, 1903
Z:Public Domain
Z:Courtesy of the Cyber Hymnal™
%%score ( 1 2 ) ( 3 4 )
L:1/8
Q:1/4=105
M:4/4
K:F
V:1 treble 
V:2 treble 
V:3 bass 
V:4 bass 
V:1
 [FA]4 [FB]2 [FA]2 | [FA]3 [FG] [EG]4 | [Ec]4 [EG]2 [GB]2 | [FB]3 [FA] [FA]4 | [Fc]4 [FB]2 [FA]2 | %5
 [FG]2 [FA]2 [EB]4 | [FA]4 [EA]2 G2 | [CF]6 z2 |] %8
V:2
 x8 | x8 | x8 | x8 | x8 | x8 | x6 (EC) | x8 |] %8
V:3
 [F,C]4 [F,C]2 [F,C]2 | [D,=B,]3 [D,B,] [C,C]4 | [C,G,]4 [C,C]2 [E,C]2 | [F,D]3 [F,C] [F,C]4 | %4
 [F,A,]4 [F,D]2 [F,C]2 | B,2 [A,C]2 [G,C]4 | [C,C]4 [C,C]2 [C,B,]2 | [F,A,]6 z2 |] %8
V:4
 x8 | x8 | x8 | x8 | x8 | B,2 x6 | x8 | x8 |] %8

